X:196
%%pagewidth 9in
%%vocalfont Baskerville10Pro 14
T:Cupid's Courtesy
M:3/4
L:1/8
K:Bb
%%score 1 2
V:1 clef-treble
V:2 clef-bass octave=-1
%%pos vol below
[V:1]!p![DBd]2G2[^FA]2|[GB]2c2[Gd]2|[Ec]2d2[E(c][B)G]|[^FA]4G2|[DBd]2G2[^FA]2|
w:Through the cool sha-dy woods As I was* ran-ging, I heard the 
[V:2]G,4D2|G4B,2|C6|(D2D,2G,2)|G,4D2|
%%pos vol above
[V:1][GB]2c2[Gd]2|[Ec]2d2[E(c][B)G]|[^FA]4G2||!f![=FAf]2[FBf]2[Fcf]2|[Fdf]2 [ce][Bd][Fc][DB]|
w:pret-ty birds Notes sweet-ly* chan-ging. Down by the mea-dow's* side*
[V:2]G4B,2|C6|(D2D,2G,2)||F,2G,2A,2|B,2B,,4|
[V:1][Fcf]2[Bdf]2[GBg]2|[Ad^f]2[^FAd]4|!pp![Bd]2G2[^FA]2|[GB]2c2[Dd]2 &x2=FEx2|[Ac]2[Bd]2[Ec][GB] & FED2x2|[C^FA]4[B,G]2||
w:There runs a ri-ver; A lit-tle boy I spied With bow and* qui-ver.
[V:2]A,2B,2E,2|D,2D4|(G,2B,2D2|G2A2B2)|(F2B,2)C2|D2D,2G,2||

